Numix-GalliumOS/22/actions/edit-table-delete-column.svg

<svg xmlns="http://www.w3.org/2000/svg" viewBox="0 0 22 22">
 <rect width="4" height="14" x="9" y="4" style="fill:#dc322f;opacity:1;fill-opacity:1;stroke:none;fill-rule:nonzero"/>
 <path d="m 3 3 l 0 1 l 0 4 l 0 1 l 0 4 l 0 1 l 0 4 l 0 1 l 1 0 l 15 0 l 0 -1 l 0 -15 l -15 0 l -1 0 z m 1 1 l 4 0 l 0 4 l -4 0 l 0 -4 z m 5 0 l 4 0 l 0 4 l -4 0 l 0 -4 z m 5 0 l 4 0 l 0 4 l -4 0 l 0 -4 z m -10 5 l 4 0 l 0 4 l -4 0 l 0 -4 z m 5 0 l 4 0 l 0 4 l -4 0 l 0 -4 z m 5 0 l 4 0 l 0 4 l -4 0 l 0 -4 z m -10 5 l 4 0 l 0 4 l -4 0 l 0 -4 z m 5 0 l 4 0 l 0 4 l -4 0 l 0 -4 z m 5 0 l 4 0 l 0 4 l -4 0 l 0 -4 z" style="fill:#888;opacity:1;fill-opacity:1;stroke:none;fill-rule:nonzero"/>
</svg>

<?xml version="1.0" encoding="UTF-8" standalone="no"?>
<svg
   xmlns:dc="http://purl.org/dc/elements/1.1/"
   xmlns:cc="http://creativecommons.org/ns#"
   xmlns:rdf="http://www.w3.org/1999/02/22-rdf-syntax-ns#"
   xmlns:svg="http://www.w3.org/2000/svg"
   xmlns="http://www.w3.org/2000/svg"
   xmlns:sodipodi="http://sodipodi.sourceforge.net/DTD/sodipodi-0.dtd"
   xmlns:inkscape="http://www.inkscape.org/namespaces/inkscape"
   viewBox="0 0 22 22"
   id="svg2"
   version="1.1"
   inkscape:version="0.91 r13725"
   sodipodi:docname="edit-table-delete-column.svg"
   width="22"
   height="22">
  <metadata
     id="metadata98">
    <rdf:RDF>
      <cc:Work
         rdf:about="">
        <dc:format>image/svg+xml</dc:format>
        <dc:type
           rdf:resource="http://purl.org/dc/dcmitype/StillImage" />
        <dc:title></dc:title>
      </cc:Work>
    </rdf:RDF>
  </metadata>
  <sodipodi:namedview
     pagecolor="#ffffff"
     bordercolor="#666666"
     borderopacity="1"
     objecttolerance="10"
     gridtolerance="10"
     guidetolerance="10"
     inkscape:pageopacity="0"
     inkscape:pageshadow="2"
     inkscape:window-width="1366"
     inkscape:window-height="704"
     id="namedview96"
     showgrid="true"
     inkscape:zoom="27.812868"
     inkscape:cx="10.911754"
     inkscape:cy="11.830675"
     inkscape:window-x="0"
     inkscape:window-y="27"
     inkscape:window-maximized="1"
     inkscape:current-layer="svg2">
    <inkscape:grid
       type="xygrid"
       id="grid4360" />
  </sodipodi:namedview>
  <defs
     id="defs4">
    <path
       id="SVGCleanerId_0"
       d="m 14,12 20,0 c 1.105,0 2,0.895 2,2 l 0,20 c 0,1.105 -0.895,2 -2,2 l -20,0 c -1.105,0 -2,-0.895 -2,-2 l 0,-20 c 0,-1.105 0.895,-2 2,-2 m 0,0"
       inkscape:connector-curvature="0" />
  </defs>
  <rect
     style="opacity:1;fill:#dc322f;fill-opacity:1;fill-rule:nonzero;stroke:none;stroke-width:1;stroke-linejoin:round;stroke-miterlimit:4;stroke-dasharray:none;stroke-opacity:1"
     id="rect4177"
     width="4"
     height="14"
     x="9"
     y="4" />
  <path
     style="opacity:1;fill:#888888;fill-opacity:1;fill-rule:nonzero;stroke:none;stroke-width:1;stroke-linejoin:round;stroke-miterlimit:4;stroke-dasharray:none;stroke-opacity:1"
     d="M 3 3 L 3 4 L 3 8 L 3 9 L 3 13 L 3 14 L 3 18 L 3 19 L 4 19 L 19 19 L 19 18 L 19 3 L 4 3 L 3 3 z M 4 4 L 8 4 L 8 8 L 4 8 L 4 4 z M 9 4 L 13 4 L 13 8 L 9 8 L 9 4 z M 14 4 L 18 4 L 18 8 L 14 8 L 14 4 z M 4 9 L 8 9 L 8 13 L 4 13 L 4 9 z M 9 9 L 13 9 L 13 13 L 9 13 L 9 9 z M 14 9 L 18 9 L 18 13 L 14 13 L 14 9 z M 4 14 L 8 14 L 8 18 L 4 18 L 4 14 z M 9 14 L 13 14 L 13 18 L 9 18 L 9 14 z M 14 14 L 18 14 L 18 18 L 14 18 L 14 14 z "
     id="rect4141" />
</svg>
